packages/katcn/src/icons/svg/cup.svg

<svg width="24" height="25" viewBox="0 0 24 25" fill="none" xmlns="http://www.w3.org/2000/svg">
<path d="M16.1791 2.20801H7.8209C6.25373 2.20801 5 3.42013 5 4.83427V10.5918C5 13.9252 7.61194 16.7535 10.9552 17.2585V20.1878H7.8209C7.19403 20.1878 6.77612 20.5918 6.77612 21.1979C6.77612 21.804 7.19403 22.208 7.8209 22.208H16.1791C16.806 22.208 17.2239 21.804 17.2239 21.1979C17.2239 20.5918 16.806 20.1878 16.1791 20.1878H13.0448V17.2585C16.3881 16.7535 19 14.0262 19 10.5918V4.83427C19 3.42013 17.7463 2.20801 16.1791 2.20801ZM16.9104 10.5918C16.9104 13.2181 14.7164 15.3393 12 15.3393C9.28358 15.3393 7.08955 13.2181 7.08955 10.5918V4.83427C7.08955 4.53124 7.40299 4.22821 7.8209 4.22821H16.1791C16.4925 4.22821 16.9104 4.53124 16.9104 4.83427V10.5918Z" fill="black"/>
<path d="M3 3.20801C2.4 3.20801 2 3.62359 2 4.24697V10.169C2 10.7924 2.4 11.208 3 11.208C3.6 11.208 4 10.7924 4 10.169V4.24697C4 3.72749 3.6 3.20801 3 3.20801Z" fill="black"/>
<path d="M21 3.20801C20.4 3.20801 20 3.62359 20 4.24697V10.169C20 10.7924 20.4 11.208 21 11.208C21.6 11.208 22 10.7924 22 10.169V4.24697C22 3.72749 21.6 3.20801 21 3.20801Z" fill="black"/>
</svg>

<svg xmlns="http://www.w3.org/2000/svg" fill="none" viewBox="0 0 24 25"><path fill="#000" d="M16.18 2.208H7.82C6.255 2.208 5 3.42 5 4.834v5.758c0 3.333 2.612 6.161 5.955 6.667v2.929H7.821c-.627 0-1.045.404-1.045 1.01s.418 1.01 1.045 1.01h8.358c.627 0 1.045-.404 1.045-1.01s-.418-1.01-1.045-1.01h-3.134v-2.93C16.388 16.754 19 14.027 19 10.593V4.834c0-1.414-1.254-2.626-2.82-2.626m.73 8.384c0 2.626-2.194 4.747-4.91 4.747s-4.91-2.12-4.91-4.747V4.834c0-.303.313-.606.73-.606h8.36c.313 0 .73.303.73.606zM3 3.208c-.6 0-1 .416-1 1.039v5.922c0 .623.4 1.039 1 1.039s1-.416 1-1.039V4.247c0-.52-.4-1.039-1-1.039m18 0c-.6 0-1 .416-1 1.039v5.922c0 .623.4 1.039 1 1.039s1-.416 1-1.039V4.247c0-.52-.4-1.039-1-1.039"/></svg>
